src/assets/svgs/projected-apy.svg

<svg width="60" height="58" viewBox="0 0 60 58" fill="none" xmlns="http://www.w3.org/2000/svg">
<rect opacity="0.05" y="0.469849" width="59.0336" height="57.3825" rx="10.1961" fill="#FFC700"/>
<path fill-rule="evenodd" clip-rule="evenodd" d="M18.2995 22.079H15.4907C14.8694 22.079 14.3672 22.5671 14.3672 23.1711C14.3672 23.775 14.8694 24.2632 15.4907 24.2632H16.6142V25.3553C16.6142 25.9592 17.1165 26.4474 17.7378 26.4474C18.358 26.4474 18.8613 25.9592 18.8613 25.3553V24.2075C20.141 23.9541 21.1084 22.8522 21.1084 21.5329C21.1084 20.0269 19.8478 18.8026 18.2995 18.8026H17.176C16.8659 18.8026 16.6142 18.5569 16.6142 18.2566C16.6142 17.9563 16.8659 17.7105 17.176 17.7105H19.9848C20.605 17.7105 21.1084 17.2224 21.1084 16.6184C21.1084 16.0145 20.605 15.5263 19.9848 15.5263H18.8613V14.4342C18.8613 13.8303 18.358 13.3421 17.7378 13.3421C17.1165 13.3421 16.6142 13.8303 16.6142 14.4342V15.582C15.3334 15.8354 14.3672 16.9373 14.3672 18.2566C14.3672 19.7626 15.6267 20.9869 17.176 20.9869H18.2995C18.6085 20.9869 18.8613 21.2326 18.8613 21.5329C18.8613 21.8332 18.6085 22.079 18.2995 22.079Z" fill="#D2B343"/>
<path fill-rule="evenodd" clip-rule="evenodd" d="M36.8371 38.4605H19.9841C19.3651 38.4605 18.8606 37.9713 18.8606 37.3684V32.36L20.3133 33.7721C20.7526 34.1992 21.4627 34.1992 21.902 33.7721C22.3413 33.3451 22.3413 32.6549 21.902 32.2279L18.5314 28.9516C18.0921 28.5246 17.382 28.5246 16.9427 28.9516L13.5722 32.2279C13.1329 32.6549 13.1329 33.3451 13.5722 33.7721C14.0115 34.1992 14.7215 34.1992 15.1608 33.7721L16.6135 32.36V37.3684C16.6135 39.1748 18.1258 40.6448 19.9841 40.6448H36.8371C37.4573 40.6448 37.9606 40.1566 37.9606 39.5527C37.9606 38.9487 37.4573 38.4605 36.8371 38.4605Z" fill="#D2B343"/>
<path fill-rule="evenodd" clip-rule="evenodd" d="M41.8923 37.3684H44.7011C45.3225 37.3684 45.8247 36.8803 45.8247 36.2763C45.8247 35.6724 45.3225 35.1842 44.7011 35.1842H43.5776V34.0921C43.5776 33.4882 43.0754 33 42.4541 33C41.8339 33 41.3306 33.4882 41.3306 34.0921V35.2399C40.0509 35.4933 39.0835 36.5952 39.0835 37.9145C39.0835 39.4205 40.3441 40.6448 41.8923 40.6448H43.0158C43.3259 40.6448 43.5776 40.8905 43.5776 41.1908C43.5776 41.4911 43.3259 41.7369 43.0158 41.7369H40.207C39.5868 41.7369 39.0835 42.225 39.0835 42.829C39.0835 43.4329 39.5868 43.9211 40.207 43.9211H41.3306V45.0132C41.3306 45.6171 41.8339 46.1053 42.4541 46.1053C43.0754 46.1053 43.5776 45.6171 43.5776 45.0132V43.8654C44.8584 43.612 45.8247 42.5101 45.8247 41.1908C45.8247 39.6848 44.5652 38.4605 43.0158 38.4605H41.8923C41.5833 38.4605 41.3306 38.2148 41.3306 37.9145C41.3306 37.6142 41.5833 37.3684 41.8923 37.3684Z" fill="#D2B343"/>
<path fill-rule="evenodd" clip-rule="evenodd" d="M46.6199 25.6753C46.1806 25.2482 45.4705 25.2482 45.0312 25.6753L43.5785 27.0874V22.079C43.5785 20.2726 42.0662 18.8026 40.2079 18.8026H23.355C22.7348 18.8026 22.2314 19.2908 22.2314 19.8947C22.2314 20.4987 22.7348 20.9869 23.355 20.9869H40.2079C40.827 20.9869 41.3314 21.4761 41.3314 22.079V27.0874L39.8787 25.6753C39.4394 25.2482 38.7293 25.2482 38.29 25.6753C37.8507 26.1023 37.8507 26.7925 38.29 27.2195L41.6606 30.4958C42.0999 30.9228 42.81 30.9228 43.2493 30.4958L46.6199 27.2195C47.0592 26.7925 47.0592 26.1023 46.6199 25.6753Z" fill="#D2B343"/>
</svg>

<svg width="60" height="58" fill="none" xmlns="http://www.w3.org/2000/svg"><rect opacity=".05" y=".47" width="59.034" height="57.383" rx="10.196" fill="#FFC700"/><path fill-rule="evenodd" clip-rule="evenodd" d="M18.3 22.079h-2.81c-.62 0-1.123.488-1.123 1.092 0 .604.502 1.092 1.124 1.092h1.123v1.092c0 .604.502 1.092 1.124 1.092.62 0 1.123-.488 1.123-1.092v-1.148c1.28-.253 2.247-1.355 2.247-2.674 0-1.506-1.26-2.73-2.809-2.73h-1.123a.555.555 0 0 1-.562-.546c0-.3.252-.547.562-.547h2.809c.62 0 1.123-.488 1.123-1.092 0-.603-.503-1.092-1.123-1.092H18.86v-1.092c0-.604-.503-1.092-1.123-1.092-.622 0-1.124.488-1.124 1.092v1.148c-1.28.253-2.247 1.355-2.247 2.675 0 1.506 1.26 2.73 2.809 2.73h1.123c.31 0 .562.246.562.546 0 .3-.253.546-.562.546zM36.837 38.46H19.984c-.619 0-1.123-.489-1.123-1.092V32.36l1.452 1.412c.44.427 1.15.427 1.589 0a1.07 1.07 0 0 0 0-1.544l-3.37-3.276a1.145 1.145 0 0 0-1.59 0l-3.37 3.276a1.07 1.07 0 0 0 0 1.544c.44.427 1.15.427 1.589 0l1.452-1.412v5.008c0 1.807 1.513 3.277 3.371 3.277h16.853c.62 0 1.124-.488 1.124-1.092 0-.604-.504-1.092-1.124-1.092zM41.892 37.368h2.81c.62 0 1.123-.488 1.123-1.092 0-.604-.503-1.092-1.124-1.092h-1.123v-1.092c0-.604-.503-1.092-1.124-1.092-.62 0-1.123.488-1.123 1.092v1.148c-1.28.253-2.248 1.355-2.248 2.674 0 1.506 1.261 2.73 2.81 2.73h1.123c.31 0 .562.247.562.547 0 .3-.252.546-.562.546h-2.809c-.62 0-1.123.488-1.123 1.092 0 .604.503 1.092 1.123 1.092h1.124v1.092c0 .604.503 1.092 1.123 1.092.621 0 1.124-.488 1.124-1.092v-1.148c1.28-.253 2.247-1.355 2.247-2.674 0-1.506-1.26-2.73-2.81-2.73h-1.123a.556.556 0 0 1-.561-.547c0-.3.252-.546.561-.546zM46.62 25.675a1.145 1.145 0 0 0-1.589 0l-1.453 1.412V22.08c0-1.806-1.512-3.276-3.37-3.276H23.355c-.62 0-1.124.488-1.124 1.092 0 .604.504 1.092 1.124 1.092h16.853c.619 0 1.123.49 1.123 1.092v5.008l-1.452-1.412a1.145 1.145 0 0 0-1.589 0 1.07 1.07 0 0 0 0 1.544l3.37 3.277c.44.427 1.15.427 1.59 0l3.37-3.276a1.07 1.07 0 0 0 0-1.545z" fill="#D2B343"/></svg>
